X:0017
T:Quick Step 71st. Regt.
M:6/8
L:1/8
Q:3/8=84
I: :: ::
%%  ^F  G  A  B ^c  d  e ^f  g  a
Z:Jack Campin * www.campin.me.uk * 2009
K:D
dfd ecA|dfa gfe|dfd ecA|ded d3:|
AFA BGB|cBc ded|AFA BGB|cBc d3:|

